X:1
T:Title
%%score { ( 1 4 ) | ( 2 3 ) }
L:1/8
M:6/8
K:Bb
V:1 treble nm="Grand Piano"
V:4 treble 
V:2 bass 
V:3 bass 
V:1
 z3 z2[Q:1/4=100] [B,DF] | [B,DF]2 [DFB] [DFB]2 [CEA] | [DB]3- [DB]2 [Fd] | %3
 [Fc]2 [FA] [GB]A[B,=EG] | [A,F]3- [A,F]2 [A,EF] | [B,DF]2 [B,FB] [CEB]2 [CEA] | %6
 [B,DB]3- [B,DB]2 [Ge] | d2 B cBA | [DB]3- [DB]2 [DF] | [Fd]2 [Fd] [^Fd]2 [Fc] | %10
 [GB]2 [_AB] [GB]2 [FB] | [Ee]2 [Ge] [CFA]2 [CEA] |[M:5/8] B-B- B3 |[M:1/8] [DF] | %14
[M:3/4] [Fd]2 [Fd] [^Fd]2 [Fc] | [GB]2 [_AB] [GB]2 [FB] | [Ee]2 [Ge] [FA]2 [EA] | %17
[M:5/8] [DB]-[DB]- [DB]3 |] %18
V:2
 z3 z2 B,, | B,,2 B,, F,2 F, | [B,,B,]3- [B,,B,]2 [B,,B,] | [C,A,]2 [C,C] z FC, | F,3- F,2 F, | %5
 B,,2 D, F,2 F, | G,3- G,2 [E,B,] | [F,B,F]2 [F,DF] [A,E][B,D][F,CE] | [B,,B,]3- [B,,B,]2 [B,,B,] | %9
 [B,,B,]2 [B,,B,] [D,A,]2 [D,D] | [G,D]2 [F,D] [E,B,]2 [D,B,] | [C,G,]2 [C,C] F,2 F, | %12
[M:5/8] z2 G, F,2 |[M:1/8] [B,,B,] |[M:3/4] [B,,B,]2 [B,,B,] [D,A,]2 [D,D] | %15
 [G,D]2 [F,D] [E,B,]2 [D,B,] | [C,G,]2 [C,C] [F,C]2 [F,C] |[M:5/8] [B,,B,]-[B,,B,]- [B,,B,]3 |] %18
V:3
 x6 | x6 | x6 | z3 .[C,C]3 | x6 | x6 | x6 | z3 .F,3 | x6 | x6 | x6 | x6 |[M:5/8] B,,-B,,- B,,3 | %13
[M:1/8] x |[M:3/4] x6 | x6 | x6 |[M:5/8] x5 |] %18
V:4
 x6 | x6 | x6 | x6 | x6 | x6 | x6 | x6 | x6 | x6 | x6 | x6 |[M:5/8] [B,D]2 E D2 |[M:1/8] x | %14
[M:3/4] x6 | x6 | x6 |[M:5/8] x5 |] %18

